X:1
T:Caledonia
M:4/4
L:1/8
K:F
 F2| A3/2 A/2A/2 c3/2 A2 G3/2 F/2| C3/2 D/2F/2 F3/2 F2 z2| d2 df c2 A3/2 c/2|\
 d2 d3/2 c/2 c2| z c| d3/2 d/2 df c/2 c3/2 A/2 c3/2| c3/2 d/2c/2 A3/2 G2 F3/2 D/2|\
 F3/2 G/2 Ad cA GF|C-F F2 F2||
